src/static/logos/openlayers.svg

<?xml version="1.0" encoding="UTF-8" standalone="no"?>
<svg width="256px" height="259px" viewBox="0 0 256 259" version="1.1" xmlns="http://www.w3.org/2000/svg" xmlns:xlink="http://www.w3.org/1999/xlink" preserveAspectRatio="xMidYMid">
	<g>
		<path d="M94.0285884,57.2132548 C112.711415,41.6541964 143.288145,41.6508751 161.974294,57.2132548 L241.989952,123.84535 C260.669458,139.406068 260.672778,164.859569 241.986631,180.421932 L161.974294,247.052365 C143.284824,262.61639 112.708094,262.611424 94.0285884,247.052365 L14.0129467,180.421932 C-4.66988027,164.862874 -4.66988027,139.406068 14.0096253,123.84535 L94.0285884,57.2132548 L94.0285884,57.2132548 Z" fill="#015965"></path>
		<path d="M94.0285884,35.5614737 C112.711415,20.0024154 143.288145,19.999094 161.974294,35.5614737 L241.989952,102.193569 C260.669458,117.755949 260.672778,143.211093 241.986631,158.771811 L161.974294,225.402229 C143.284824,240.966286 112.708094,240.961271 94.0285884,225.402229 L14.0129467,158.771811 C-4.66988027,143.211093 -4.66988027,117.755931 14.0096253,102.193569 L94.0285884,35.5614737 L94.0285884,35.5614737 Z" fill="#E5E5E5"></path>
		<path d="M161.974294,12.3187941 L241.989952,78.9508889 C260.669458,94.5132685 260.672778,119.968413 241.986631,135.529131 L161.974294,202.159566 C143.284824,217.723589 112.708094,217.718624 94.0285884,202.159566 L14.0129467,135.529131 C-4.66988027,119.968413 -4.66988027,94.5132685 14.0096253,78.9508889 L94.0285884,12.3187941 C112.711415,-3.24026421 143.288145,-3.24358559 161.974294,12.3187941 L161.974294,12.3187941 Z" fill="#35BBCE"></path>
		<path d="M244.310409,81.0995505 C243.574671,80.3914242 242.817309,79.6949337 242.010171,79.0233774 L161.988917,12.3298458 C143.301081,-3.24727107 112.721608,-3.24394654 94.0370771,12.3298458 L14.01089,79.0233774 C-4.67030189,94.6021565 -4.67030189,120.081406 14.0142117,135.656861 L22.6256964,142.832873 C45.141781,115.791075 121.073983,40.8527088 244.310409,81.0995505 L244.310409,81.0995505 L244.310409,81.0995505 Z" opacity="0.15" fill="#FFFFFF"></path>
    </g>
</svg>

<svg width="256" height="259" xmlns="http://www.w3.org/2000/svg" preserveAspectRatio="xMidYMid"><path d="M94.029 57.213c18.682-15.559 49.26-15.562 67.945 0l80.016 66.632c18.68 15.561 18.683 41.015-.003 56.577l-80.013 66.63c-18.69 15.564-49.266 15.56-67.945 0l-80.016-66.63c-18.683-15.56-18.683-41.016-.003-56.577l80.019-66.632z" fill="#015965"/><path d="M94.029 35.561c18.682-15.559 49.26-15.562 67.945 0l80.016 66.633c18.68 15.562 18.683 41.017-.003 56.578l-80.013 66.63c-18.69 15.564-49.266 15.56-67.945 0l-80.016-66.63c-18.683-15.56-18.683-41.016-.003-56.578L94.029 35.56z" fill="#E5E5E5"/><path d="M161.974 12.319L241.99 78.95c18.68 15.562 18.683 41.017-.003 56.578l-80.013 66.63c-18.69 15.565-49.266 15.56-67.945 0l-80.016-66.63C-4.67 119.97-4.67 94.513 14.01 78.951l80.019-66.632c18.682-15.56 49.26-15.563 67.945 0z" fill="#35BBCE"/><path d="M244.31 81.1a42.693 42.693 0 00-2.3-2.077L161.99 12.33c-18.688-15.577-49.267-15.574-67.952 0L14.011 79.023c-18.681 15.58-18.681 41.058.003 56.634l8.612 7.176C45.142 115.79 121.074 40.853 244.31 81.1z" opacity=".15" fill="#FFF"/></svg>
